X: 3282
T: WIDOW SLOAN
%R: jig
B: James Kerr "Merry Melodies" v.3 p.31 #282
Z: 2016 John Chambers <jc:trillian.mit.edu>
M: 6/8
L: 1/8
K: C
|:\
G2c cBc | G2c cBc | A2d dcd | Bag fdB |\
G2c cBc | G2c cBc | Bag fed | c3- c2 H:|
g2e g2e | g2e ceg | a2f a2f | a2f def |\
g2e g2e | ge2 cde | ded cBA | G^FG BAG |]

%%sep 1 1 500
%%sep 1 1 500

